src/images/modal-self-deploy.svg

<svg xmlns="http://www.w3.org/2000/svg" width="61" height="56" fill="none" viewBox="0 0 61 56"><path fill="#F7A501" fill-rule="evenodd" d="M0 0H60.181V55.8978H0V0Z" clip-rule="evenodd"/><path fill="#fff" fill-rule="evenodd" stroke="#F96132" stroke-linecap="round" stroke-linejoin="round" stroke-width="6.29" d="M8.54712 8.02384H51.1188V47.5601H8.54712V8.02384Z" clip-rule="evenodd"/><path fill="#63709E" fill-rule="evenodd" d="M19.703 15.459H32.6216V40.2791H19.703V15.459Z" clip-rule="evenodd"/><path fill="#35416B" fill-rule="evenodd" d="M32.5856 15.459L38.275 19.6479L38.1211 40.4043L32.5928 40.2935L32.5856 15.459Z" clip-rule="evenodd"/><path fill="#fff" fill-rule="evenodd" d="M21.4556 17.2123H30.7639C30.8165 17.2119 30.8685 17.2219 30.9172 17.2416C30.9659 17.2614 31.0102 17.2906 31.0476 17.3275C31.085 17.3643 31.1148 17.4083 31.1353 17.4567C31.1557 17.5051 31.1664 17.557 31.1668 17.6096V19.9805C31.1664 20.033 31.1557 20.085 31.1353 20.1334C31.1148 20.1818 31.085 20.2257 31.0476 20.2626C31.0102 20.2995 30.9659 20.3287 30.9172 20.3484C30.8685 20.3682 30.8165 20.3782 30.7639 20.3778H21.4556C21.3496 20.3782 21.2478 20.3366 21.1723 20.2622C21.0969 20.1878 21.0539 20.0865 21.0527 19.9805V17.6096C21.0539 17.5036 21.0969 17.4023 21.1723 17.3279C21.2478 17.2534 21.3496 17.2119 21.4556 17.2123Z" clip-rule="evenodd"/><path fill="#fff" fill-rule="evenodd" d="M21.4196 21.6589H30.728C30.7805 21.6584 30.8327 21.6682 30.8815 21.6879C30.9302 21.7076 30.9746 21.7367 31.0121 21.7737C31.0495 21.8106 31.0793 21.8546 31.0997 21.9031C31.1201 21.9516 31.1307 22.0036 31.1308 22.0562V24.4257C31.1307 24.4783 31.1201 24.5303 31.0997 24.5788C31.0793 24.6273 31.0495 24.6713 31.0121 24.7082C30.9746 24.7452 30.9302 24.7743 30.8815 24.794C30.8327 24.8137 30.7805 24.8236 30.728 24.823H21.4196C21.3671 24.8234 21.315 24.8134 21.2664 24.7936C21.2177 24.7739 21.1734 24.7447 21.1359 24.7078C21.0985 24.6709 21.0688 24.627 21.0483 24.5786C21.0278 24.5302 21.0171 24.4782 21.0168 24.4257V22.0562C21.0171 22.0037 21.0278 21.9517 21.0483 21.9033C21.0688 21.8549 21.0985 21.811 21.1359 21.7741C21.1734 21.7372 21.2177 21.708 21.2664 21.6883C21.315 21.6685 21.3671 21.6585 21.4196 21.6589Z" clip-rule="evenodd"/><path fill-rule="evenodd" stroke="#fff" stroke-linecap="round" stroke-linejoin="round" stroke-width=".933" d="M33.5612 23.3216L37.2535 24.9339C37.4751 24.9339 37.6549 25.3312 37.6549 25.3312V27.7021C37.6549 27.9209 37.2535 28.0994 37.2535 28.0994L33.5612 26.4871C33.4552 26.4875 33.3534 26.4459 33.2779 26.3715C33.2024 26.2971 33.1594 26.1958 33.1583 26.0898V23.7189C33.1594 23.6129 33.2024 23.5116 33.2779 23.4372C33.3534 23.3628 33.4552 23.3212 33.5612 23.3216V23.3216Z" clip-rule="evenodd"/><path fill="#fff" fill-rule="evenodd" d="M21.4916 25.7443H30.8013C30.8538 25.7439 30.9058 25.7539 30.9544 25.7736C31.003 25.7934 31.0472 25.8226 31.0845 25.8595C31.1218 25.8964 31.1515 25.9403 31.1718 25.9887C31.1921 26.0371 31.2026 26.0891 31.2028 26.1416V28.511C31.2026 28.5635 31.1921 28.6154 31.1718 28.6638C31.1515 28.7122 31.1218 28.7561 31.0845 28.793C31.0472 28.83 31.003 28.8591 30.9544 28.8789C30.9058 28.8987 30.8538 28.9087 30.8013 28.9083H21.4916C21.4391 28.9087 21.3871 28.8987 21.3385 28.8789C21.2899 28.8591 21.2457 28.83 21.2084 28.793C21.1711 28.7561 21.1415 28.7122 21.1212 28.6638C21.1009 28.6154 21.0903 28.5635 21.0901 28.511V26.1416C21.0903 26.0891 21.1009 26.0371 21.1212 25.9887C21.1415 25.9403 21.1711 25.8964 21.2084 25.8595C21.2457 25.8226 21.2899 25.7934 21.3385 25.7736C21.3871 25.7539 21.4391 25.7439 21.4916 25.7443Z" clip-rule="evenodd"/><path fill="#fff" fill-rule="evenodd" d="M21.4556 29.9376H30.7639C30.8165 29.937 30.8687 29.9468 30.9174 29.9665C30.9662 29.9862 31.0106 30.0154 31.048 30.0523C31.0855 30.0892 31.1153 30.1332 31.1357 30.1817C31.156 30.2302 31.1666 30.2823 31.1668 30.3349V32.7043C31.1666 32.7569 31.156 32.809 31.1357 32.8575C31.1153 32.9059 31.0855 32.9499 31.048 32.9869C31.0106 33.0238 30.9662 33.0529 30.9174 33.0726C30.8687 33.0923 30.8165 33.1022 30.7639 33.1016H21.4556C21.4031 33.102 21.351 33.092 21.3023 33.0722C21.2536 33.0525 21.2093 33.0233 21.1719 32.9864C21.1345 32.9495 21.1047 32.9056 21.0843 32.8572C21.0638 32.8088 21.0531 32.7569 21.0527 32.7043V30.3349C21.0531 30.2823 21.0638 30.2303 21.0843 30.1819C21.1047 30.1335 21.1345 30.0896 21.1719 30.0527C21.2093 30.0158 21.2536 29.9867 21.3023 29.9669C21.351 29.9472 21.4031 29.9372 21.4556 29.9376Z" clip-rule="evenodd"/><path fill="#fff" fill-rule="evenodd" d="M21.4916 34.0949H30.8013C30.8538 34.0946 30.9058 34.1045 30.9544 34.1243C31.003 34.1441 31.0472 34.1733 31.0845 34.2102C31.1218 34.2471 31.1515 34.291 31.1718 34.3394C31.1921 34.3878 31.2026 34.4398 31.2028 34.4922V36.8617C31.2026 36.9142 31.1921 36.9661 31.1718 37.0145C31.1515 37.0629 31.1218 37.1068 31.0845 37.1437C31.0472 37.1806 31.003 37.2098 30.9544 37.2296C30.9058 37.2494 30.8538 37.2594 30.8013 37.259H21.4916C21.4391 37.2594 21.3871 37.2494 21.3385 37.2296C21.2899 37.2098 21.2457 37.1806 21.2084 37.1437C21.1711 37.1068 21.1415 37.0629 21.1212 37.0145C21.1009 36.9661 21.0903 36.9142 21.0901 36.8617V34.4922C21.0903 34.4398 21.1009 34.3878 21.1212 34.3394C21.1415 34.291 21.1711 34.2471 21.2084 34.2102C21.2457 34.1733 21.2899 34.1441 21.3385 34.1243C21.3871 34.1045 21.4391 34.0946 21.4916 34.0949Z" clip-rule="evenodd"/><path fill="#F96132" fill-rule="evenodd" d="M22.2269 23.2928C22.2283 23.2145 22.2528 23.1384 22.2973 23.074C22.3418 23.0097 22.4043 22.9599 22.477 22.9309C22.5496 22.9019 22.6293 22.8951 22.7058 22.9112C22.7824 22.9273 22.8525 22.9657 22.9073 23.0216C22.9621 23.0774 22.9992 23.1482 23.014 23.2251C23.0287 23.3019 23.0204 23.3815 22.9902 23.4536C22.9599 23.5258 22.909 23.5874 22.8439 23.6308C22.7787 23.6741 22.7022 23.6973 22.624 23.6973C22.5714 23.6969 22.5193 23.6861 22.4708 23.6656C22.4223 23.645 22.3784 23.6151 22.3415 23.5775C22.3046 23.5399 22.2755 23.4954 22.2558 23.4466C22.2361 23.3977 22.2263 23.3455 22.2269 23.2928Z" clip-rule="evenodd"/><path fill="#F96132" fill-rule="evenodd" d="M22.1434 18.9138C22.1445 18.8354 22.1688 18.7592 22.2131 18.6946C22.2574 18.6301 22.3199 18.58 22.3925 18.5508C22.4652 18.5216 22.5448 18.5146 22.6215 18.5306C22.6981 18.5465 22.7684 18.5848 22.8233 18.6406C22.8783 18.6964 22.9156 18.7672 22.9304 18.8441C22.9453 18.921 22.9371 19.0006 22.9069 19.0729C22.8766 19.1451 22.8257 19.2068 22.7606 19.2502C22.6954 19.2937 22.6188 19.3168 22.5405 19.3168C22.488 19.3164 22.4361 19.3057 22.3877 19.2853C22.3393 19.2648 22.2954 19.235 22.2585 19.1976C22.2217 19.1602 22.1925 19.1158 22.1728 19.0671C22.153 19.0184 22.143 18.9663 22.1434 18.9138Z" clip-rule="evenodd"/><path fill="#F7A501" fill-rule="evenodd" d="M22.1017 27.3594C22.1028 27.2811 22.1271 27.2048 22.1714 27.1403C22.2157 27.0757 22.2781 27.0257 22.3508 26.9965C22.4235 26.9673 22.5031 26.9602 22.5798 26.9762C22.6564 26.9922 22.7267 27.0305 22.7816 27.0862C22.8366 27.142 22.8738 27.2128 22.8887 27.2897C22.9036 27.3666 22.8954 27.4462 22.8652 27.5185C22.8349 27.5908 22.784 27.6525 22.7189 27.6959C22.6537 27.7393 22.5771 27.7625 22.4988 27.7625C22.4463 27.7621 22.3944 27.7514 22.346 27.7309C22.2976 27.7104 22.2537 27.6806 22.2168 27.6432C22.1799 27.6058 22.1508 27.5615 22.131 27.5128C22.1113 27.4641 22.1013 27.412 22.1017 27.3594Z" clip-rule="evenodd"/><path fill="#F96132" fill-rule="evenodd" d="M22.3521 31.5369C22.3535 31.4586 22.378 31.3825 22.4225 31.3181C22.4669 31.2538 22.5295 31.204 22.6021 31.175C22.6748 31.146 22.7544 31.1392 22.831 31.1553C22.9076 31.1714 22.9776 31.2098 23.0325 31.2657C23.0873 31.3215 23.1244 31.3923 23.1392 31.4692C23.1539 31.546 23.1456 31.6256 23.1154 31.6977C23.0851 31.7699 23.0342 31.8316 22.9691 31.8749C22.9039 31.9182 22.8274 31.9414 22.7492 31.9414C22.6965 31.9412 22.6443 31.9306 22.5958 31.9101C22.5472 31.8896 22.5032 31.8597 22.4662 31.8221C22.4293 31.7844 22.4002 31.7399 22.3806 31.6909C22.361 31.642 22.3513 31.5896 22.3521 31.5369Z" clip-rule="evenodd"/><path fill="#F96132" fill-rule="evenodd" d="M22.4916 35.6697C22.4928 35.5914 22.5171 35.5151 22.5614 35.4505C22.6058 35.3859 22.6683 35.3358 22.7411 35.3067C22.8138 35.2775 22.8936 35.2706 22.9702 35.2867C23.0469 35.3027 23.1172 35.3412 23.1721 35.3971C23.227 35.453 23.2641 35.524 23.2788 35.601C23.2935 35.678 23.2851 35.7576 23.2547 35.8298C23.2242 35.9021 23.1731 35.9637 23.1078 36.0069C23.0424 36.0502 22.9657 36.0731 22.8873 36.0728C22.7815 36.0717 22.6804 36.0286 22.6063 35.9531C22.5321 35.8775 22.4909 35.7756 22.4916 35.6697Z" clip-rule="evenodd"/><path fill="#0316F0" fill-rule="evenodd" d="M23.8557 23.2784C23.8571 23.2001 23.8817 23.1239 23.9262 23.0595C23.9708 22.9951 24.0334 22.9453 24.1061 22.9164C24.1789 22.8875 24.2586 22.8807 24.3352 22.897C24.4118 22.9132 24.4819 22.9517 24.5366 23.0077C24.5914 23.0637 24.6284 23.1346 24.643 23.2116C24.6576 23.2886 24.6491 23.3681 24.6186 23.4403C24.5881 23.5124 24.537 23.5739 24.4717 23.6171C24.4064 23.6603 24.3297 23.6832 24.2514 23.6829C24.1988 23.6825 24.1468 23.6718 24.0984 23.6512C24.05 23.6306 24.0062 23.6007 23.9694 23.5631C23.9326 23.5255 23.9036 23.481 23.8841 23.4321C23.8646 23.3833 23.855 23.331 23.8557 23.2784Z" clip-rule="evenodd"/><path fill="#F7A501" fill-rule="evenodd" d="M23.7723 18.8922C23.7734 18.8138 23.7977 18.7375 23.8421 18.6729C23.8865 18.6083 23.949 18.5583 24.0217 18.5291C24.0945 18.5 24.1742 18.493 24.2509 18.5091C24.3276 18.5252 24.3978 18.5636 24.4527 18.6195C24.5076 18.6755 24.5448 18.7464 24.5595 18.8234C24.5742 18.9004 24.5658 18.98 24.5353 19.0523C24.5049 19.1245 24.4538 19.1861 24.3884 19.2294C24.323 19.2726 24.2463 19.2955 24.168 19.2952C24.0621 19.2941 23.9611 19.251 23.8869 19.1755C23.8127 19.0999 23.7715 18.9981 23.7723 18.8922Z" clip-rule="evenodd"/><path fill="#0316F0" fill-rule="evenodd" d="M23.7305 27.345C23.7319 27.2667 23.7565 27.1906 23.801 27.1261C23.8456 27.0617 23.9082 27.0119 23.9809 26.983C24.0537 26.9541 24.1334 26.9473 24.21 26.9636C24.2866 26.9798 24.3567 27.0183 24.4114 27.0743C24.4662 27.1303 24.5032 27.2012 24.5178 27.2782C24.5324 27.3552 24.5239 27.4347 24.4934 27.5069C24.4629 27.579 24.4118 27.6406 24.3465 27.6837C24.2812 27.7269 24.2045 27.7498 24.1262 27.7495C24.0736 27.7492 24.0216 27.7384 23.9732 27.7178C23.9248 27.6972 23.881 27.6673 23.8442 27.6297C23.8074 27.5921 23.7784 27.5476 23.7589 27.4987C23.7394 27.4499 23.7298 27.3976 23.7305 27.345Z" clip-rule="evenodd"/><path fill="#F7A501" fill-rule="evenodd" d="M23.9809 31.5239C23.9821 31.4456 24.0063 31.3693 24.0506 31.3048C24.095 31.2402 24.1574 31.1902 24.23 31.161C24.3027 31.1318 24.3824 31.1247 24.459 31.1407C24.5357 31.1567 24.6059 31.195 24.6609 31.2508C24.7158 31.3065 24.7531 31.3773 24.7679 31.4543C24.7828 31.5312 24.7746 31.6107 24.7444 31.683C24.7142 31.7553 24.6633 31.817 24.5981 31.8604C24.5329 31.9038 24.4564 31.927 24.3781 31.927C24.3255 31.9266 24.2736 31.9159 24.2252 31.8954C24.1768 31.875 24.1329 31.8452 24.0961 31.8077C24.0592 31.7703 24.03 31.726 24.0103 31.6773C23.9905 31.6286 23.9805 31.5765 23.9809 31.5239Z" clip-rule="evenodd"/><path fill="#F7A501" fill-rule="evenodd" d="M24.1205 35.6553C24.1219 35.577 24.1464 35.5008 24.191 35.4364C24.2355 35.372 24.2981 35.3222 24.3709 35.2933C24.4436 35.2644 24.5233 35.2576 24.5999 35.2739C24.6765 35.2901 24.7466 35.3286 24.8014 35.3846C24.8561 35.4406 24.8932 35.5115 24.9077 35.5885C24.9223 35.6655 24.9138 35.745 24.8834 35.8172C24.8529 35.8893 24.8018 35.9509 24.7364 35.994C24.6711 36.0372 24.5945 36.0601 24.5162 36.0598C24.4636 36.0594 24.4116 36.0487 24.3632 36.0281C24.3148 36.0075 24.2709 35.9776 24.2341 35.94C24.1974 35.9024 24.1684 35.8579 24.1489 35.809C24.1294 35.7602 24.1197 35.7079 24.1205 35.6553Z" clip-rule="evenodd"/><path fill="#F7A501" fill-rule="evenodd" d="M25.6414 22.9747H29.5581C29.6339 22.9868 29.702 23.0277 29.7484 23.0888C29.7948 23.1499 29.8158 23.2266 29.8071 23.3029C29.8071 23.4843 29.6948 23.6325 29.5581 23.6325H25.6414C25.4975 23.6325 25.3939 23.4886 25.3939 23.3029C25.3939 23.1215 25.5047 22.9747 25.6414 22.9747Z" clip-rule="evenodd"/><path fill="#0316F0" fill-rule="evenodd" d="M25.5579 18.5885H29.4747C29.5504 18.6006 29.6186 18.6415 29.665 18.7026C29.7113 18.7637 29.7323 18.8404 29.7236 18.9167C29.7323 18.9929 29.7113 19.0696 29.665 19.1307C29.6186 19.1919 29.5504 19.2328 29.4747 19.2449H25.5579C25.4141 19.2449 25.3105 19.1009 25.3105 18.9167C25.3105 18.7353 25.4212 18.5885 25.5579 18.5885Z" clip-rule="evenodd"/><path fill="#F96132" fill-rule="evenodd" d="M25.5162 27.0413H29.4329C29.5087 27.0534 29.5768 27.0943 29.6232 27.1554C29.6696 27.2165 29.6906 27.2932 29.6819 27.3695C29.6819 27.5509 29.5696 27.6991 29.4329 27.6991H25.5162C25.3723 27.6991 25.2687 27.5552 25.2687 27.3695C25.2687 27.1881 25.3795 27.0413 25.5162 27.0413Z" clip-rule="evenodd"/><path fill="#0316F0" fill-rule="evenodd" d="M25.7666 31.2188H29.6833C29.8272 31.2188 29.9323 31.3627 29.9323 31.5484C29.941 31.6247 29.92 31.7013 29.8736 31.7625C29.8272 31.8236 29.7591 31.8645 29.6833 31.8766H25.7666C25.6227 31.8766 25.5191 31.7327 25.5191 31.5484C25.5191 31.367 25.6299 31.2188 25.7666 31.2188Z" clip-rule="evenodd"/><path fill="#F96132" fill-rule="evenodd" d="M25.9004 35.3516H29.8171C29.8929 35.3637 29.961 35.4046 30.0074 35.4657C30.0538 35.5269 30.0748 35.6036 30.066 35.6798C30.0748 35.7561 30.0538 35.8328 30.0074 35.8939C29.961 35.955 29.8929 35.9959 29.8171 36.008H25.9004C25.8246 35.9959 25.7565 35.955 25.7101 35.8939C25.6637 35.8328 25.6427 35.7561 25.6515 35.6798C25.6427 35.6036 25.6637 35.5269 25.7101 35.4657C25.7565 35.4046 25.8246 35.3637 25.9004 35.3516Z" clip-rule="evenodd"/><path fill="#fff" fill-rule="evenodd" d="M33.5842 24.1392L34.1051 24.3537V26.4655L33.5842 26.2553V24.1392Z" clip-rule="evenodd"/><path fill="#F7A501" fill-rule="evenodd" d="M34.2763 25.1397L34.7958 25.3542L34.8116 26.7764L34.2907 26.5619L34.2763 25.1397Z" clip-rule="evenodd"/><path fill="#0316F0" fill-rule="evenodd" d="M34.9972 25.8234L35.5181 26.0379V27.06L34.9972 26.8455V25.8234Z" clip-rule="evenodd"/><path fill="#fff" fill-rule="evenodd" d="M35.7095 25.4967L36.2303 25.7112V27.3609L35.7095 27.1464V25.4967Z" clip-rule="evenodd"/><path fill="#F96132" fill-rule="evenodd" d="M36.416 25.3383L36.9354 25.5528V27.666L36.416 27.4515V25.3383Z" clip-rule="evenodd"/></svg>

<svg fill="none" viewBox="0 0 61 56"><path fill="#F7A501" fill-rule="evenodd" d="M0 0h60.181v55.898H0V0z" clip-rule="evenodd"/><path fill="#fff" fill-rule="evenodd" stroke="#F96132" stroke-linecap="round" stroke-linejoin="round" stroke-width="6.29" d="M8.547 8.024H51.12V47.56H8.547V8.024z" clip-rule="evenodd"/><path fill="#63709E" fill-rule="evenodd" d="M19.703 15.459h12.919v24.82H19.703V15.46z" clip-rule="evenodd"/><path fill="#35416B" fill-rule="evenodd" d="M32.586 15.459l5.689 4.189-.154 20.756-5.528-.11-.007-24.835z" clip-rule="evenodd"/><path fill="#fff" fill-rule="evenodd" d="M21.456 17.212h9.308a.4.4 0 01.403.398v2.37a.402.402 0 01-.403.398h-9.308a.401.401 0 01-.403-.398v-2.37a.402.402 0 01.403-.398zm-.036 4.447h9.308a.4.4 0 01.403.397v2.37a.397.397 0 01-.403.397H21.42a.398.398 0 01-.403-.397v-2.37a.398.398 0 01.403-.397z" clip-rule="evenodd"/><path stroke="#fff" stroke-linecap="round" stroke-linejoin="round" stroke-width=".933" d="M33.561 23.322l3.693 1.612c.221 0 .4.397.4.397v2.371c0 .219-.4.397-.4.397l-3.693-1.612a.401.401 0 01-.403-.397v-2.371a.401.401 0 01.403-.397v0z" clip-rule="evenodd"/><path fill="#fff" fill-rule="evenodd" d="M21.492 25.744h9.31a.4.4 0 01.4.398v2.369a.399.399 0 01-.4.397h-9.31a.398.398 0 01-.402-.397v-2.37a.4.4 0 01.402-.397zm-.036 4.194h9.308a.397.397 0 01.403.397v2.37a.4.4 0 01-.403.397h-9.308a.399.399 0 01-.403-.398v-2.37a.4.4 0 01.403-.396zm.036 4.157h9.31a.4.4 0 01.4.397v2.37a.399.399 0 01-.4.397h-9.31a.398.398 0 01-.402-.397v-2.37a.4.4 0 01.402-.397z" clip-rule="evenodd"/><path fill="#F96132" fill-rule="evenodd" d="M22.227 23.293a.397.397 0 11.794.014.397.397 0 01-.794-.014zm-.084-4.38a.397.397 0 11.795.012.397.397 0 01-.795-.011z" clip-rule="evenodd"/><path fill="#F7A501" fill-rule="evenodd" d="M22.102 27.36a.397.397 0 11.794.01.397.397 0 01-.794-.01z" clip-rule="evenodd"/><path fill="#F96132" fill-rule="evenodd" d="M22.352 31.537a.397.397 0 11.795.014.397.397 0 01-.795-.014zm.14 4.133a.399.399 0 01.68-.273.397.397 0 11-.68.273z" clip-rule="evenodd"/><path fill="#0316F0" fill-rule="evenodd" d="M23.856 23.278a.398.398 0 11.795.015.398.398 0 01-.795-.015z" clip-rule="evenodd"/><path fill="#F7A501" fill-rule="evenodd" d="M23.772 18.892a.397.397 0 11.794.011.397.397 0 01-.794-.01z" clip-rule="evenodd"/><path fill="#0316F0" fill-rule="evenodd" d="M23.73 27.345a.398.398 0 11.796.015.398.398 0 01-.796-.015z" clip-rule="evenodd"/><path fill="#F7A501" fill-rule="evenodd" d="M23.98 31.524a.398.398 0 11.797.012.398.398 0 01-.796-.012zm.14 4.131a.397.397 0 11.794.014.397.397 0 01-.794-.014zm1.521-12.68h3.917a.298.298 0 01.25.328c0 .181-.113.33-.25.33h-3.917c-.143 0-.247-.144-.247-.33 0-.181.11-.328.247-.328z" clip-rule="evenodd"/><path fill="#0316F0" fill-rule="evenodd" d="M25.558 18.588h3.917a.298.298 0 01.249.329.298.298 0 01-.25.328h-3.916c-.144 0-.247-.144-.247-.328 0-.182.11-.329.247-.329z" clip-rule="evenodd"/><path fill="#F96132" fill-rule="evenodd" d="M25.516 27.041h3.917a.298.298 0 01.249.328c0 .182-.112.33-.25.33h-3.916c-.144 0-.247-.144-.247-.33 0-.18.11-.328.247-.328z" clip-rule="evenodd"/><path fill="#0316F0" fill-rule="evenodd" d="M25.767 31.219h3.916c.144 0 .25.144.25.33a.298.298 0 01-.25.328h-3.916c-.144 0-.248-.144-.248-.329 0-.181.11-.33.248-.33z" clip-rule="evenodd"/><path fill="#F96132" fill-rule="evenodd" d="M25.9 35.352h3.917a.298.298 0 01.249.328.298.298 0 01-.249.328H25.9a.298.298 0 01-.248-.328.298.298 0 01.248-.328z" clip-rule="evenodd"/><path fill="#fff" fill-rule="evenodd" d="M33.584 24.14l.521.214v2.111l-.52-.21V24.14z" clip-rule="evenodd"/><path fill="#F7A501" fill-rule="evenodd" d="M34.276 25.14l.52.214.016 1.422-.521-.214-.015-1.422z" clip-rule="evenodd"/><path fill="#0316F0" fill-rule="evenodd" d="M34.997 25.823l.521.215v1.022l-.52-.214v-1.023z" clip-rule="evenodd"/><path fill="#fff" fill-rule="evenodd" d="M35.71 25.497l.52.214v1.65l-.52-.215v-1.65z" clip-rule="evenodd"/><path fill="#F96132" fill-rule="evenodd" d="M36.416 25.338l.52.215v2.113l-.52-.215v-2.113z" clip-rule="evenodd"/></svg>
